svg/u1f975.svg

<svg viewBox="0 0 128 128" xmlns="http://www.w3.org/2000/svg">
  <radialGradient id="face_1_" cx="63.6" cy="-2088.8999" gradientTransform="matrix(1 0 0 -1 0 -2026)" gradientUnits="userSpaceOnUse" r="56.9597">
    <stop offset="0.5" stop-color="#FDE030"/>
    <stop offset="0.9188" stop-color="#F7C02B"/>
    <stop offset="1" stop-color="#F4A223"/>
  </radialGradient>
  <path id="face_70_" d="M63.6,118.8c-27.9,0-58-17.5-58-55.9S35.7,7,63.6,7c15.5,0,29.8,5.1,40.4,14.4 c11.5,10.2,17.6,24.6,17.6,41.5s-6.1,31.2-17.6,41.4C93.4,113.6,79,118.8,63.6,118.8z" fill="url(#face_1_)"/>
  <radialGradient id="hot-face_4_" cx="63.6" cy="-2088.8999" gradientTransform="matrix(1 0 0 -1 0 -2026)" gradientUnits="userSpaceOnUse" r="56.9597">
    <stop offset="0.1228" stop-color="#F4A223"/>
    <stop offset="0.3556" stop-color="#F49F22"/>
    <stop offset="0.5388" stop-color="#F6951D"/>
    <stop offset="0.7052" stop-color="#F88416"/>
    <stop offset="0.8605" stop-color="#FB6D0C"/>
    <stop offset="1" stop-color="#FF5100"/>
  </radialGradient>
  <path id="hot-face_1_" d="M63.6,118.8c-27.9,0-58-17.5-58-55.9S35.7,7,63.6,7 c15.5,0,29.8,5.1,40.4,14.4c11.5,10.2,17.6,24.6,17.6,41.5s-6.1,31.2-17.6,41.4C93.4,113.6,79,118.8,63.6,118.8z" fill="url(#hot-face_4_)"/>
  <linearGradient id="hot-face_5_" gradientTransform="matrix(1 0 0 -1 0 -2026)" gradientUnits="userSpaceOnUse" x1="63.6" x2="63.6" y1="-2144.8" y2="-2033">
    <stop offset="0" stop-color="#F4A223"/>
    <stop offset="0.0833" stop-color="#F4A223" stop-opacity="0.9051"/>
    <stop offset="0.8772" stop-color="#F4A223" stop-opacity="0"/>
  </linearGradient>
  <path id="hot-face_2_" d="M63.6,118.8c-27.9,0-58-17.5-58-55.9S35.7,7,63.6,7 c15.5,0,29.8,5.1,40.4,14.4c11.5,10.2,17.6,24.6,17.6,41.5s-6.1,31.2-17.6,41.4C93.4,113.6,79,118.8,63.6,118.8z" fill="url(#hot-face_5_)"/>
  <path d="M111.49,29.67c5.33,8.6,8.11,18.84,8.11,30.23c0,16.9-6.1,31.2-17.6,41.4 c-10.6,9.3-25,14.5-40.4,14.5c-18.06,0-37.04-7.35-48.18-22.94c10.76,17.66,30.99,25.94,50.18,25.94c15.4,0,29.8-5.2,40.4-14.5 c11.5-10.2,17.6-24.5,17.6-41.4C121.6,50.16,118.13,38.84,111.49,29.67z" fill="#D84213"/>
  <g id="hot-face_3_">
    <g id="blush_16_">
      <radialGradient id="SVGID_1_" cx="25.7006" cy="63.1008" gradientTransform="matrix(0.9791 0 0 0.9301 2.0871 6.472)" gradientUnits="userSpaceOnUse" r="19.4444">
        <stop offset="5.108173e-03" stop-color="#ED0E00"/>
        <stop offset="0.1455" stop-color="#ED1709" stop-opacity="0.8431"/>
        <stop offset="0.3791" stop-color="#ED2F23" stop-opacity="0.582"/>
        <stop offset="0.6751" stop-color="#ED554C" stop-opacity="0.2513"/>
        <stop offset="0.9" stop-color="#ED7770" stop-opacity="0"/>
      </radialGradient>
      <circle cx="27.25" cy="65.16" fill="url(#SVGID_1_)" r="17.5"/>
      <radialGradient id="SVGID_2_" cx="100.7714" cy="63.1008" gradientTransform="matrix(0.9791 0 0 0.9301 2.0871 6.472)" gradientUnits="userSpaceOnUse" r="19.4444">
        <stop offset="5.108173e-03" stop-color="#ED0E00"/>
        <stop offset="0.1455" stop-color="#ED1709" stop-opacity="0.8431"/>
        <stop offset="0.3791" stop-color="#ED2F23" stop-opacity="0.582"/>
        <stop offset="0.6751" stop-color="#ED554C" stop-opacity="0.2513"/>
        <stop offset="0.9" stop-color="#ED7770" stop-opacity="0"/>
      </radialGradient>
      <circle cx="100.75" cy="65.16" fill="url(#SVGID_2_)" r="17.5"/>
    </g>
    <g id="mouth_39_">
      <ellipse cx="64" cy="91.15" fill="#422B0D" rx="28.47" ry="11.85"/>
      <g>
        <path d="M65.1,98.32c1.1,0,2-0.9,2-2V82.6c-1.33-0.03-2.67-0.04-4-0.02v13.74 C63.1,97.42,64,98.32,65.1,98.32z" fill="#FF0044"/>
        <path d="M65.1,98.32c1.1,0,2-0.9,2-2V82.6c-1.33-0.03-2.67-0.04-4-0.02v13.74 C63.1,97.42,64,98.32,65.1,98.32z" fill="#1F0B08" opacity="0.3"/>
      </g>
    </g>
  </g>
  <radialGradient id="SVGID_3_" cx="20.5903" cy="495.072" gradientTransform="matrix(1 0 0 1.54 0 -699.47)" gradientUnits="userSpaceOnUse" r="33.4014">
    <stop offset="0.46" stop-color="#4FC3F7"/>
    <stop offset="1" stop-color="#1E88E5"/>
  </radialGradient>
  <path d="M19.52,107.04c-8.46,0-14.97-8.2-14.97-15.23c0-4.95,2.21-10.68,5.34-18.62 c0.39-1.17,0.91-2.34,1.43-3.65c1.49-3.72,2.81-7.75,4.81-11.24c1.36-2.38,4.83-2.38,6.14,0.03c1.86,3.43,3.14,7.14,5.07,11.47 c5.47,12.24,7.03,17.18,7.03,22.13C34.49,98.83,27.85,107.04,19.52,107.04z" fill="url(#SVGID_3_)"/>
  <path d="M28.67,97.65c-1.91,2.96-6.25,2.4-6.25-2.51c0-3.14,0.64-19.25,3.33-17 C30.14,81.81,31.39,93.47,28.67,97.65z" fill="#81D4FA"/>
  <g id="eyes_16_">
    <g id="eyebrows_34_">
      <path d="M27.39,39.77c-2.2,0.39-2.31,3.59,0.09,3.7c4.9,0.12,10.21-1.66,14.32-5.45 c1.5-1.29,2.81-2.89,3.72-4.49c1.21-2.2-1.59-3.71-2.99-2.11l-0.1,0.1C38.4,36.01,32.89,38.89,27.39,39.77z" fill="#422B0D"/>
      <path d="M86.12,31.52l-0.1-0.1c-1.41-1.59-4.2-0.08-2.99,2.11c0.91,1.6,2.21,3.19,3.72,4.49 c4.11,3.78,9.42,5.57,14.32,5.45c2.4-0.11,2.29-3.31,0.09-3.7C95.65,38.89,90.14,36.01,86.12,31.52z" fill="#422B0D"/>
    </g>
  </g>
  <g>
    <path d="M63.1,85.87v10.45c0,1.1,0.9,2,2,2s2-0.9,2-2V85.86C65.73,85.83,64.39,85.83,63.1,85.87z" fill="none"/>
    <path d="M67.1,85.86v10.46c0,1.1-0.9,2-2,2s-2-0.9-2-2V85.87c-7.45,0.22-13.41,1.52-16.85,2.48v12.59 c0,9.51,7.71,17.21,17.21,17.21h3.28c9.51,0,17.21-7.71,17.21-17.21V88.35C77.97,86.69,72.26,85.99,67.1,85.86z" fill="#FF4081"/>
    <path d="M67.1,82.6v3.26c5.16,0.13,10.87,0.82,16.85,2.48V86.6C80.55,84.5,72.95,82.75,67.1,82.6z" fill="#FF4081"/>
    <path d="M67.1,82.6v3.26c5.16,0.13,10.87,0.82,16.85,2.48V86.6 C80.55,84.5,72.95,82.75,67.1,82.6z" fill="#AB3F2E" opacity="0.3"/>
    <path d="M63.1,82.58c-5.88,0.1-12.17,0.99-16.85,3.97v1.8c3.45-0.96,9.41-2.26,16.85-2.48V82.58z" fill="#FF4081"/>
    <path d="M63.1,82.58c-5.88,0.1-12.17,0.99-16.85,3.97v1.8c3.45-0.96,9.41-2.26,16.85-2.48V82.58 z" fill="#AB3F2E" opacity="0.3"/>
  </g>
  <radialGradient id="SVGID_4_" cx="113.569" cy="467.5592" gradientTransform="matrix(1 0 0 1.54 0 -699.47)" gradientUnits="userSpaceOnUse" r="29.5319">
    <stop offset="0.46" stop-color="#4FC3F7"/>
    <stop offset="1" stop-color="#1E88E5"/>
  </radialGradient>
  <path d="M112.62,59.56c-7.48,0-13.24-7.25-13.24-13.47c0-4.37,1.96-9.44,4.72-16.46 c0.35-1.04,0.81-2.07,1.27-3.22c1.32-3.29,2.48-6.86,4.25-9.94c1.21-2.11,4.27-2.1,5.43,0.03c1.65,3.03,2.77,6.31,4.48,10.14 c4.83,10.82,6.22,15.19,6.22,19.57C125.86,52.31,119.99,59.56,112.62,59.56z" fill="url(#SVGID_4_)"/>
  <path d="M120.72,51.26c-1.69,2.61-5.53,2.12-5.53-2.22c0-2.77,0.56-17.02,2.95-15.03 C122.02,37.25,123.12,47.57,120.72,51.26z" fill="#81D4FA"/>
  <g>
    <path d="M44.04,45.94L44.04,45.94c-4.19,0-8,3.54-8,9.42s3.81,9.42,8,9.42l0,0c4.19,0,8-3.54,8-9.42 S48.24,45.94,44.04,45.94z" fill="#422B0D"/>
    <g id="peepers_132_">
      <path d="M43.65,49.87L43.65,49.87c-1.03-0.72-2.58-0.49-3.58,0.95c-1,1.45-0.67,2.97,0.36,3.69l0,0 c1.03,0.72,2.58,0.49,3.58-0.95S44.69,50.59,43.65,49.87z" fill="#896024"/>
    </g>
    <path d="M82.4,45.94L82.4,45.94c-4.19,0-8,3.54-8,9.42s3.81,9.42,8,9.42l0,0c4.19,0,8-3.54,8-9.42 S86.59,45.94,82.4,45.94z" fill="#422B0D"/>
    <g id="peepers_131_">
      <path d="M82.01,49.87L82.01,49.87c-1.03-0.72-2.58-0.49-3.58,0.95c-1,1.45-0.67,2.97,0.36,3.69l0,0 c1.03,0.72,2.58,0.49,3.58-0.95C83.38,52.11,83.04,50.59,82.01,49.87z" fill="#896024"/>
    </g>
  </g>
</svg>

<svg viewBox="0 0 128 128" xmlns="http://www.w3.org/2000/svg">
  <defs>
    <radialGradient id="face_1_" cx="63.6" cy="-62.8999" gradientTransform="matrix(1 0 0 -1 0 0)" gradientUnits="userSpaceOnUse" r="56.9597">
      <stop offset="0.5" stop-color="#FDE030"/>
      <stop offset="0.9188" stop-color="#F7C02B"/>
      <stop offset="1" stop-color="#F4A223"/>
    </radialGradient>
    <radialGradient id="hot-face_4_" cx="63.6" cy="-62.8999" gradientTransform="matrix(1 0 0 -1 0 0)" gradientUnits="userSpaceOnUse" r="56.9597">
      <stop offset="0.1228" stop-color="#F4A223"/>
      <stop offset="0.3556" stop-color="#F49F22"/>
      <stop offset="0.5388" stop-color="#F6951D"/>
      <stop offset="0.7052" stop-color="#F88416"/>
      <stop offset="0.8605" stop-color="#FB6D0C"/>
      <stop offset="1" stop-color="#FF5100"/>
    </radialGradient>
    <linearGradient id="hot-face_5_" gradientTransform="matrix(1 0 0 -1 0 0)" gradientUnits="userSpaceOnUse" x1="63.6" x2="63.6" y1="-118.8" y2="-7">
      <stop offset="0" stop-color="#F4A223"/>
      <stop offset="0.0833" stop-color="#F4A223" stop-opacity="0.9051"/>
      <stop offset="0.8772" stop-color="#F4A223" stop-opacity="0"/>
    </linearGradient>
    <radialGradient id="SVGID_3_" cx="20.5903" cy="40.870701" gradientTransform="matrix(1 0 0 1.54 0 0)" gradientUnits="userSpaceOnUse" r="33.4014">
      <stop offset="0.46" stop-color="#4FC3F7"/>
      <stop offset="1" stop-color="#1E88E5"/>
    </radialGradient>
    <radialGradient id="SVGID_4_" cx="113.569" cy="13.357901" gradientTransform="matrix(1 0 0 1.54 0 0)" gradientUnits="userSpaceOnUse" r="29.5319">
      <stop offset="0.46" stop-color="#4FC3F7"/>
      <stop offset="1" stop-color="#1E88E5"/>
    </radialGradient>
    <radialGradient id="SVGID_1_" cx="27.832252" cy="70.059192" gradientTransform="matrix(0.9791 0 0 0.9301 0 0)" gradientUnits="userSpaceOnUse" r="19.4444">
      <stop offset="5.108173e-03" stop-color="#ED0E00"/>
      <stop offset="0.1455" stop-color="#ED1709" stop-opacity="0.8431"/>
      <stop offset="0.3791" stop-color="#ED2F23" stop-opacity="0.582"/>
      <stop offset="0.6751" stop-color="#ED554C" stop-opacity="0.2513"/>
      <stop offset="0.9" stop-color="#ED7770" stop-opacity="0"/>
    </radialGradient>
    <radialGradient id="SVGID_2_" cx="102.903052" cy="70.059192" gradientTransform="matrix(0.9791 0 0 0.9301 0 0)" gradientUnits="userSpaceOnUse" r="19.4444">
      <stop offset="5.108173e-03" stop-color="#ED0E00"/>
      <stop offset="0.1455" stop-color="#ED1709" stop-opacity="0.8431"/>
      <stop offset="0.3791" stop-color="#ED2F23" stop-opacity="0.582"/>
      <stop offset="0.6751" stop-color="#ED554C" stop-opacity="0.2513"/>
      <stop offset="0.9" stop-color="#ED7770" stop-opacity="0"/>
    </radialGradient>
  </defs>
  <path id="face_70_" d="M63.6,118.8 C35.7,118.8 5.6,101.3 5.6,62.9 C5.6,24.5 35.7,7 63.6,7 C79.1,7 93.4,12.1 104,21.4 C115.5,31.6 121.6,46 121.6,62.9 C121.6,79.8 115.5,94.1 104,104.3 C93.4,113.6 79,118.8 63.6,118.8 Z" fill="url(#face_1_)"/>
  <path id="hot-face_1_" d="M63.6,118.8 C35.7,118.8 5.6,101.3 5.6,62.9 C5.6,24.5 35.7,7 63.6,7 C79.1,7 93.4,12.1 104,21.4 C115.5,31.6 121.6,46 121.6,62.9 C121.6,79.8 115.5,94.1 104,104.3 C93.4,113.6 79,118.8 63.6,118.8 Z" fill="url(#hot-face_4_)"/>
  <path id="hot-face_2_" d="M63.6,118.8 C35.7,118.8 5.6,101.3 5.6,62.9 C5.6,24.5 35.7,7 63.6,7 C79.1,7 93.4,12.1 104,21.4 C115.5,31.6 121.6,46 121.6,62.9 C121.6,79.8 115.5,94.1 104,104.3 C93.4,113.6 79,118.8 63.6,118.8 Z" fill="url(#hot-face_5_)"/>
  <path d="M111.49,29.67 C116.82,38.27 119.6,48.51 119.6,59.9 C119.6,76.8 113.5,91.1 102,101.3 C91.4,110.6 77,115.8 61.6,115.8 C43.54,115.8 24.56,108.45 13.42,92.86 C24.18,110.52 44.41,118.8 63.6,118.8 C79,118.8 93.4,113.6 104,104.3 C115.5,94.1 121.6,79.8 121.6,62.9 C121.6,50.16 118.13,38.84 111.49,29.67 Z" fill="#D84213"/>
  <path d="M44.75,65.16 A17.5 17.5 0 1 1 9.75,65.16 A17.5 17.5 0 1 1 44.75,65.16 Z" fill="url(#SVGID_1_)"/>
  <path d="M118.25,65.16 A17.5 17.5 0 1 1 83.25,65.16 A17.5 17.5 0 1 1 118.25,65.16 Z" fill="url(#SVGID_2_)"/>
  <path d="M92.47,91.15 A28.47 11.85 0 1 1 35.53,91.15 A28.47 11.85 0 1 1 92.47,91.15 Z" fill="#422B0D"/>
  <path d="M65.1,98.32 C66.2,98.32 67.1,97.42 67.1,96.32 L67.1,82.6 C65.77,82.57 64.43,82.56 63.1,82.58 L63.1,96.32 C63.1,97.42 64,98.32 65.1,98.32 Z" fill="#FF0044"/>
  <path d="M65.1,98.32 C66.2,98.32 67.1,97.42 67.1,96.32 L67.1,82.6 C65.77,82.57 64.43,82.56 63.1,82.58 L63.1,96.32 C63.1,97.42 64,98.32 65.1,98.32 Z" fill="#1F0B08" opacity="0.3"/>
  <path d="M19.52,107.04 C11.06,107.04 4.55,98.84 4.55,91.81 C4.55,86.86 6.76,81.13 9.89,73.19 C10.28,72.02 10.8,70.85 11.32,69.54 C12.81,65.82 14.13,61.79 16.13,58.3 C17.49,55.92 20.96,55.92 22.27,58.33 C24.13,61.76 25.41,65.47 27.34,69.8 C32.81,82.04 34.37,86.98 34.37,91.93 C34.49,98.83 27.85,107.04 19.52,107.04 Z" fill="url(#SVGID_3_)"/>
  <path d="M28.67,97.65 C26.76,100.61 22.42,100.05 22.42,95.14 C22.42,92 23.06,75.89 25.75,78.14 C30.14,81.81 31.39,93.47 28.67,97.65 Z" fill="#81D4FA"/>
  <path d="M27.39,39.77 C25.19,40.16 25.08,43.36 27.48,43.47 C32.38,43.59 37.69,41.81 41.8,38.02 C43.3,36.73 44.61,35.13 45.52,33.53 C46.73,31.33 43.93,29.82 42.53,31.42 L42.43,31.52 C38.4,36.01 32.89,38.89 27.39,39.77 Z" fill="#422B0D"/>
  <path d="M86.12,31.52 L86.02,31.42 C84.61,29.83 81.82,31.34 83.03,33.53 C83.94,35.13 85.24,36.72 86.75,38.02 C90.86,41.8 96.17,43.59 101.07,43.47 C103.47,43.36 103.36,40.16 101.16,39.77 C95.65,38.89 90.14,36.01 86.12,31.52 Z" fill="#422B0D"/>
  <path d="M67.1,85.86 L67.1,96.32 C67.1,97.42 66.2,98.32 65.1,98.32 C64,98.32 63.1,97.42 63.1,96.32 L63.1,85.87 C55.65,86.09 49.69,87.39 46.25,88.35 L46.25,100.94 C46.25,110.45 53.96,118.15 63.46,118.15 L66.74,118.15 C76.25,118.15 83.95,110.44 83.95,100.94 L83.95,88.35 C77.97,86.69 72.26,85.99 67.1,85.86 Z" fill="#FF4081"/>
  <path d="M67.1,82.6 L67.1,85.86 C72.26,85.99 77.97,86.68 83.95,88.34 L83.95,86.6 C80.55,84.5 72.95,82.75 67.1,82.6 Z" fill="#FF4081"/>
  <path d="M67.1,82.6 L67.1,85.86 C72.26,85.99 77.97,86.68 83.95,88.34 L83.95,86.6 C80.55,84.5 72.95,82.75 67.1,82.6 Z" fill="#AB3F2E" opacity="0.3"/>
  <path d="M63.1,82.58 C57.22,82.68 50.93,83.57 46.25,86.55 L46.25,88.35 C49.7,87.39 55.66,86.09 63.1,85.87 L63.1,82.58 Z" fill="#FF4081"/>
  <path d="M63.1,82.58 C57.22,82.68 50.93,83.57 46.25,86.55 L46.25,88.35 C49.7,87.39 55.66,86.09 63.1,85.87 L63.1,82.58 Z" fill="#AB3F2E" opacity="0.3"/>
  <path d="M112.62,59.56 C105.14,59.56 99.38,52.31 99.38,46.09 C99.38,41.72 101.34,36.65 104.1,29.63 C104.45,28.59 104.91,27.56 105.37,26.41 C106.69,23.12 107.85,19.55 109.62,16.47 C110.83,14.36 113.89,14.37 115.05,16.5 C116.7,19.53 117.82,22.81 119.53,26.64 C124.36,37.46 125.75,41.83 125.75,46.21 C125.86,52.31 119.99,59.56 112.62,59.56 Z" fill="url(#SVGID_4_)"/>
  <path d="M120.72,51.26 C119.03,53.87 115.19,53.38 115.19,49.04 C115.19,46.27 115.75,32.02 118.14,34.01 C122.02,37.25 123.12,47.57 120.72,51.26 Z" fill="#81D4FA"/>
  <path d="M44.04,45.94 L44.04,45.94 C39.85,45.94 36.04,49.48 36.04,55.36 C36.04,61.24 39.85,64.78 44.04,64.78 L44.04,64.78 C48.23,64.78 52.04,61.24 52.04,55.36 C52.04,49.48 48.24,45.94 44.04,45.94 Z" fill="#422B0D"/>
  <path d="M43.65,49.87 L43.65,49.87 C42.62,49.15 41.07,49.38 40.07,50.82 C39.07,52.27 39.4,53.79 40.43,54.51 L40.43,54.51 C41.46,55.23 43.01,55 44.01,53.56 C45.01,52.12 44.69,50.59 43.65,49.87 Z" fill="#896024"/>
  <path d="M82.4,45.94 L82.4,45.94 C78.21,45.94 74.4,49.48 74.4,55.36 C74.4,61.24 78.21,64.78 82.4,64.78 L82.4,64.78 C86.59,64.78 90.4,61.24 90.4,55.36 C90.4,49.48 86.59,45.94 82.4,45.94 Z" fill="#422B0D"/>
  <path d="M82.01,49.87 L82.01,49.87 C80.98,49.15 79.43,49.38 78.43,50.82 C77.43,52.27 77.76,53.79 78.79,54.51 L78.79,54.51 C79.82,55.23 81.37,55 82.37,53.56 C83.38,52.11 83.04,50.59 82.01,49.87 Z" fill="#896024"/>
</svg>
